X:2257
T:My ghraih nagh share 
C:Traditional
O:Isle of Man
S:Mona Melodies No 10
Z:Clague collection
B:Kiaull Vannin #257 
M:4/4 
L:1/8 
Q:40 
K:D 
A/B/c|d>d ed cd ef|BB c>B !fermata!A2 A/B/c|d>c de f>g af|ge fd f>!fermata!c (A!3!Bc)| 
d>c de d>f d/e/f|ge fd d>c c/d/e|g2 fd ec A>B|cA A/B/c d>d ec|d6|| 

